X: 1
T: Out On The Road
M: 6/8
L: 1/8
R: jig
K: Dmaj
F2E DFA|dfe d2c|BAd BAF|ABA F2E|
F2E DFA|dfe d2c|BAd BAF|EFE D3:|
Add edd|Adf edB|A2d Bdd|BAF AFE|
A2d edB|Adf afd|BAF AFE|EFE (3DEF A|
Add edB|A2d edB|A2d Bdd|Adf e2f|
afd f3|dBA d2d|BAF AFE|EFE D3|
